X:0425
T:As I came o'er the Cairney Mount.
N:initial rest in second part added to make things add up
M:C|
L:1/8
Q:1/4=90 "Slow"
I: :: ::
Z:Jack Campin * www.campin.me.uk * 2009
K:D
A|F2ED (FGA)F|BAGF  E3 B|A2D2 (FG)  A2 |(B>cd).A F2A2 |
  D2d>e d3 g |e2E2 TE3 D|F2A2  B>(dTcB)| A2D>E   F2A :|
z|d3  e defd |gfed  e2fe|d2A2  F2   A2 |(Bcd).A  F2A2 |
  D2d2  d3 f |e2E2 TE3 D|F2A2  B(dTcB) | A2D2    F2A2|]

